public/images/icon-basis.svg

<?xml version="1.0" encoding="UTF-8"?>
<svg width="16px" height="15px" viewBox="0 0 16 15" version="1.1" xmlns="http://www.w3.org/2000/svg" xmlns:xlink="http://www.w3.org/1999/xlink">
    <!-- Generator: Sketch 51.1 (57501) - http://www.bohemiancoding.com/sketch -->
    <title>7001 veiligheid en justitie</title>
    <desc>Created with Sketch.</desc>
    <defs></defs>
    <g id="A.-Data-[ALL-PAGES]" stroke="none" stroke-width="1" fill="none" fill-rule="evenodd">
        <g id="B.-Data---Dataset---Desktop-[1366px]" transform="translate(-735.000000, -388.000000)">
            <g id="7001-veiligheid-en-justitie" transform="translate(735.000000, 387.000000)">
                <g id="_x36_4px_Boxes">
                    <rect id="Rectangle-path" x="0" y="0" width="16" height="16"></rect>
                </g>
                <g id="Icon" transform="translate(0.000000, 1.000000)" fill="#333333" fill-rule="nonzero">
                    <g id="Group">
                        <path d="M7.25115,11.8313337 C6.76505,12.0295647 6.3022,12.1533901 6,12.1533901 C5.237225,12.1533901 3.453075,11.3787472 2.841075,10.5554632 C3.856575,10.2034235 4.6048,9.93985212 4.6875,9.3987221 C4.743475,8.90166295 4.80245,8.40643694 4.842025,8.07905692 C4.678925,7.92 4.536175,7.75064732 4.41045,7.57531808 C4.4039,7.56620257 4.39685,7.55723772 4.390375,7.54807199 C4.353025,7.49503627 4.31775,7.44129743 4.283575,7.38725725 C4.03825,6.9996596 3.878225,6.59257533 3.78705,6.20497768 C5.24635,5.92382812 6.757275,5.92410435 8.21665,6.20575614 C7.9544,7.33211217 7.200925,8.53797154 5.99995,8.53797154 C5.7197,8.53797154 5.440075,8.48902902 5.23635,8.39194754 C5.3289,8.61441127 5.53245,8.82672991 6.057825,8.95828962 C7.357575,9.28338449 7.76085,8.23226283 8.444875,7.88198103 C8.62965,7.78736049 9.028575,7.64166295 9.57945,7.55153739 C9.44175,7.08890625 9.193625,6.67695033 9.037675,6.27109654 C9.237775,6.19169364 9.387425,6.0100865 9.42125,5.78152065 L9.74305,3.65532087 C9.783625,3.37967076 9.642125,3.1158231 9.404975,2.99727121 C9.413675,2.1024442 9.289575,1.37352958 8.71565,1.02801897 C8.028075,0.614029018 7.255,0.799930246 7.255,0.799930246 C7.255,0.799930246 6.511725,-0.152578125 5.211775,0.093390067 C3.8283,0.355253906 3.0251,1.4629269 2.7533,2.94310547 C2.73765,2.94734933 2.72165,2.95011161 2.706,2.95440569 C2.4034,3.03777623 2.210325,3.33891462 2.2569,3.65527065 L2.5787,5.78147042 C2.61745,6.04343471 2.808275,6.24274554 3.0528,6.29801618 C2.794325,7.00083984 2.0543,7.69733538 2.37855,8.68115792 C2.47245,8.96607422 2.89555,9.26738839 3.442925,9.53231585 C3.31945,9.58379464 3.169225,9.64200335 2.9812,9.70867467 C2.4676,9.89053292 1.468025,10.1757506 1.05285,10.6116127 C0.482575,11.2104743 0.108525,13.2479046 0,14.0625 L8.45755,14.0625 C7.722725,13.6749023 7.25975,12.8647266 7.25115,11.8313337 Z M3.25335,5.3242885 L3.1975,4.94266741 C3.87915,4.57576172 5.25065,4.36324219 5.25065,4.36324219 C5.251575,4.34820033 5.247675,4.29529018 5.1644,4.29400949 C5.1644,4.29400949 4.4546,4.17759208 3.125375,4.44975167 L3.03985,3.86522879 C3.0208,3.7365067 3.101275,3.61225446 3.225825,3.5818192 C5.0423,3.13822266 6.9577,3.13822266 8.774175,3.5818192 C8.898725,3.61225446 8.9792,3.7365067 8.96015,3.86522879 L8.905,4.24210379 C8.2543,4.00901786 7.687925,4.02069475 7.687925,4.02069475 C7.60515,4.01155413 7.594725,4.06356027 7.593775,4.07857701 C7.593775,4.07857701 8.262175,4.22023158 8.8588,4.55778181 L8.74665,5.32423828 C8.72565,5.46621931 8.592475,5.55908203 8.4539,5.53108259 C7.6466,5.36805804 6.82295,5.28554129 6.000075,5.28554129 C5.1771,5.28554129 4.353425,5.36805804 3.546125,5.53108259 C3.407525,5.55910714 3.27435,5.46626953 3.25335,5.3242885 Z" id="Shape"></path>
                        <path d="M15.974125,11.7308371 L15.0628,9.33142299 C15.063225,9.33159877 15.0638,9.33179967 15.064225,9.33200056 C15.25465,9.41414063 15.475,9.32587333 15.5569,9.13482422 C15.638675,8.94380022 15.551175,8.72234096 15.3611,8.64020089 C15.251225,8.5926144 14.26785,8.1791769 13.58975,8.31354911 C13.2498,8.38054688 13.000175,8.48568917 12.690375,8.5813644 C12.72865,8.49088728 12.75,8.39136998 12.75,8.28683036 C12.75,7.87075614 12.414225,7.53348214 12,7.53348214 C11.585775,7.53348214 11.25,7.87075614 11.25,8.28683036 C11.25,8.39136998 11.27135,8.49088728 11.30965,8.58138951 C10.999875,8.48571429 10.750225,8.38057199 10.4104,8.31357422 C9.731075,8.17967913 8.748775,8.59263951 8.638925,8.640226 C8.44875,8.72261719 8.3611,8.94407645 8.443125,9.13510045 C8.524375,9.32456752 8.7415,9.41220703 8.930575,9.33353237 L8.020025,11.7308873 C8.0039,11.7671735 8,11.8417299 8.004375,11.92274 C8.049525,13.0132868 8.700825,13.5602679 9.5,13.5602679 C10.2935,13.5602679 10.943075,13.0227037 10.99645,11.9476004 C10.9996,11.8842188 11.005425,11.8188281 10.9741,11.7308371 L9.955425,9.04879185 C10.069525,9.03688895 10.176975,9.03518136 10.265475,9.05268415 C10.678875,9.13422154 10.9914,9.30771763 11.499975,9.40093192 L11.499975,13.8113839 L10.749975,13.8113839 C10.33575,13.8113839 9.999975,14.1486579 9.999975,14.5647321 L9.999975,14.8158482 L13.999975,14.8158482 L13.999975,14.5647321 C13.999975,14.1486579 13.6642,13.8113839 13.249975,13.8113839 L12.499975,13.8113839 L12.499975,9.40093192 C13.0088,9.3076423 13.320975,9.13422154 13.7346,9.05268415 C13.8197,9.03608538 13.924475,9.03621094 14.038975,9.04801339 L13.02,11.7308371 C13.003875,11.7671233 12.999975,11.8416797 13.00435,11.9226897 C13.049525,13.0132868 13.700825,13.5602679 14.5,13.5602679 C15.2935,13.5602679 15.943075,13.0227037 15.99645,11.9476004 C15.9996,11.8842188 16.005425,11.8188281 15.974125,11.7308371 Z M10.275,11.8024554 C10.275,12.4720815 9.914225,12.8069196 9.5,12.8069196 C9.411875,12.8069196 9.32855,12.7884877 9.25,12.7581529 C9.540625,12.6459794 9.75,12.3295982 9.75,11.8024554 L8.742075,11.8024554 L9.497075,9.81462054 C9.498225,9.81763393 10.278225,11.8024554 10.275,11.8024554 Z M14.5,12.8069196 C14.411875,12.8069196 14.32855,12.7884877 14.25,12.7581529 C14.540625,12.6459794 14.75,12.3295982 14.75,11.8024554 L13.742075,11.8024554 L14.497075,9.81462054 C14.498225,9.81763393 15.278225,11.8024554 15.275,11.8024554 C15.275,12.4720815 14.914225,12.8069196 14.5,12.8069196 Z" id="Shape"></path>
                    </g>
                </g>
            </g>
        </g>
    </g>
</svg>

<svg aria-hidden="true" focusable="false" role="img" width="16" height="15" xmlns="http://www.w3.org/2000/svg"><g fill="none"><path d="M0-1h16v16H0z"/><g fill="#333"><path d="M7.251 11.831c-.486.199-.949.322-1.251.322-.763 0-2.547-.774-3.159-1.598 1.016-.352 1.764-.615 1.846-1.156.056-.497.115-.993.155-1.32a3.77 3.77 0 0 1-.432-.504l-.02-.027a3.879 3.879 0 0 1-.603-1.343c1.46-.281 2.97-.28 4.43 0C7.954 7.333 7.2 8.539 6 8.539c-.28 0-.56-.049-.764-.146.093.222.296.435.822.566 1.3.325 1.703-.726 2.387-1.076.185-.095.584-.24 1.134-.33-.137-.463-.385-.875-.541-1.28a.62.62 0 0 0 .383-.49l.322-2.127a.632.632 0 0 0-.338-.658c.009-.895-.115-1.623-.69-1.969C8.029.614 7.256.8 7.256.8S6.512-.153 5.212.093c-1.384.262-2.187 1.37-2.459 2.85l-.047.011a.629.629 0 0 0-.45.701l.323 2.126c.038.262.23.462.474.517-.259.703-.999 1.4-.674 2.383.093.285.517.586 1.064.851-.124.052-.274.11-.462.177-.513.182-1.513.467-1.928.903-.57.598-.944 2.636-1.053 3.45h8.458c-.735-.387-1.198-1.197-1.207-2.23zM3.253 5.324l-.056-.381c.682-.367 2.054-.58 2.054-.58 0-.015-.003-.068-.087-.069 0 0-.71-.116-2.039.156l-.085-.585a.253.253 0 0 1 .186-.283 11.732 11.732 0 0 1 5.548 0c.125.03.205.155.186.283l-.055.377c-.65-.233-1.217-.221-1.217-.221-.083-.01-.093.043-.094.058 0 0 .668.141 1.265.479l-.112.766a.246.246 0 0 1-.293.207 12.41 12.41 0 0 0-4.908 0 .246.246 0 0 1-.293-.207z"/><path d="M15.974 11.73l-.911-2.399.001.001a.377.377 0 0 0 .297-.692c-.11-.047-1.093-.46-1.771-.326-.34.067-.59.172-.9.267A.754.754 0 0 0 12 7.533a.752.752 0 0 0-.69 1.048c-.31-.095-.56-.2-.9-.267-.679-.134-1.661.279-1.771.326a.377.377 0 0 0-.196.495c.081.19.299.277.488.199L8.02 11.73a.504.504 0 0 0-.016.192c.046 1.09.697 1.637 1.496 1.637.793 0 1.443-.537 1.496-1.612.004-.064.01-.13-.022-.217L9.955 9.049a1.08 1.08 0 0 1 .31.004c.414.081.726.255 1.235.348v4.41h-.75a.752.752 0 0 0-.75.754v.25h4v-.25a.752.752 0 0 0-.75-.754h-.75v-4.41c.509-.093.821-.267 1.235-.348a1.07 1.07 0 0 1 .304-.005l-1.019 2.683a.504.504 0 0 0-.016.192c.046 1.09.697 1.637 1.496 1.637.793 0 1.443-.537 1.496-1.612.004-.064.01-.13-.022-.217zm-5.699.072c0 .67-.36 1.005-.775 1.005a.69.69 0 0 1-.25-.049c.29-.112.5-.428.5-.956H8.742l.755-1.987c.001.003.781 1.987.778 1.987zm4.225 1.005a.69.69 0 0 1-.25-.049c.29-.112.5-.428.5-.956h-1.008l.755-1.987c.001.003.781 1.987.778 1.987 0 .67-.36 1.005-.775 1.005z"/></g></g></svg>
